svg/u3030.svg

<svg viewBox="0 0 128 128" xmlns="http://www.w3.org/2000/svg">
  <path d="M3.8,50.1c-1.65,2.9-2.19,7.39,3.23,12.5C12,67.3,25.94,80.43,38.8,80.1 c14.67-0.39,19.69-14.67,25.99-14.41c3.89,0.16,7.65,5.03,12.72,9.67c3.38,3.09,7.8,6.25,14.03,6.25c9.14,0,17.31-6.14,23.92-12.48 c5.13-4.92,8.4-10.58,8.9-13.22c1.07-5.57-2.58-6.24-2.58-6.24L93.36,73.53L62.87,54.62L37.26,69.67L9.21,52.05L3.8,50.1z" fill="#464C4F"/>
  <path d="M6.37,47.72c-4.16,2.53-3.45,5.5-2.66,6.91c2.87,5.08,11.02,11.54,17.54,15.93 c6.2,4.17,12.4,6.61,20.39,5.85c9.84-0.93,14.01-14.62,23.26-14.73c8.14-0.1,15.41,16.47,26.84,16.47 c10.66,0,23.93-14.05,26.26-16.86c2.33-2.81,6.49-8.62,6.2-9.4c-0.29-0.78-1.82-5.39-8.88-4.74c-5.01,0.46-10.82,8.32-13.89,10.84 c-2.71,2.23-6.78,5.42-10.27,5.23c-7.7-0.41-11.92-16.47-25.87-16.57c-14.25-0.1-18.8,16.03-27.71,16.47 c-5.91,0.29-17.29-12.55-21.01-15.03C12.49,45.38,8.6,46.36,6.37,47.72z" fill="#606265"/>
  <path d="M15.96,50.68c-0.15,1-3.34,1.26-4.65,2.07c-1.47,0.91-2.07,3.39-4.4,2.58 C5,54.66,4.79,51.44,8.43,49.06C12.07,46.69,16.21,48.96,15.96,50.68z" fill="#9A9A99"/>
  <path d="M51.46,56.65c-4.96,4.9-8.89,8.34-7.02,10.21c1.59,1.59,5.87-2.89,9.75-6.47 c4.32-3.98,10.34-7.25,7.88-9.4C60.05,49.21,55.55,52.6,51.46,56.65z" fill="#9A9A99"/>
  <path d="M116.52,50.55c-1.29-0.89-3.35-0.1-5.65,2.05c-2.32,2.17-5.91,5.97-9,8.63 c-4.15,3.57-6.55,3.71-5.48,5.63c1.06,1.92,5.42,0.26,11.18-4.7C112.73,57.71,119.3,52.47,116.52,50.55z" fill="#9A9A99"/>
</svg>

<svg viewBox="0 0 128 128" xmlns="http://www.w3.org/2000/svg">
  <defs/>
  <path d="M3.8,50.1 C2.15,53 1.61,57.49 7.03,62.6 C12,67.3 25.94,80.43 38.8,80.1 C53.47,79.71 58.49,65.43 64.79,65.69 C68.68,65.85 72.44,70.72 77.51,75.36 C80.89,78.45 85.31,81.61 91.54,81.61 C100.68,81.61 108.85,75.47 115.46,69.13 C120.59,64.21 123.86,58.55 124.36,55.91 C125.43,50.34 121.78,49.67 121.78,49.67 L93.36,73.53 L62.87,54.62 L37.26,69.67 L9.21,52.05 L3.8,50.1 Z" fill="#464C4F"/>
  <path d="M6.37,47.72 C2.21,50.25 2.92,53.22 3.71,54.63 C6.58,59.71 14.73,66.17 21.25,70.56 C27.45,74.73 33.65,77.17 41.64,76.41 C51.48,75.48 55.65,61.79 64.9,61.68 C73.04,61.58 80.31,78.15 91.74,78.15 C102.4,78.15 115.67,64.1 118,61.29 C120.33,58.48 124.49,52.67 124.2,51.89 C123.91,51.11 122.38,46.5 115.32,47.15 C110.31,47.61 104.5,55.47 101.43,57.99 C98.72,60.22 94.65,63.41 91.16,63.22 C83.46,62.81 79.24,46.75 65.29,46.65 C51.04,46.55 46.49,62.68 37.58,63.12 C31.67,63.41 20.29,50.57 16.57,48.09 C12.49,45.38 8.6,46.36 6.37,47.72 Z" fill="#606265"/>
  <path d="M15.96,50.68 C15.81,51.68 12.62,51.94 11.31,52.75 C9.84,53.66 9.24,56.14 6.91,55.33 C5,54.66 4.79,51.44 8.43,49.06 C12.07,46.69 16.21,48.96 15.96,50.68 Z" fill="#9A9A99"/>
  <path d="M51.46,56.65 C46.5,61.55 42.57,64.99 44.44,66.86 C46.03,68.45 50.31,63.97 54.19,60.39 C58.51,56.41 64.53,53.14 62.07,50.99 C60.05,49.21 55.55,52.6 51.46,56.65 Z" fill="#9A9A99"/>
  <path d="M116.52,50.55 C115.23,49.66 113.17,50.45 110.87,52.6 C108.55,54.77 104.96,58.57 101.87,61.23 C97.72,64.8 95.32,64.94 96.39,66.86 C97.45,68.78 101.81,67.12 107.57,62.16 C112.73,57.71 119.3,52.47 116.52,50.55 Z" fill="#9A9A99"/>
</svg>
